src/cmd/sc_numberformatincdecimals.svg

<?xml version="1.0" encoding="UTF-8" standalone="no"?>
<svg
   xmlns:dc="http://purl.org/dc/elements/1.1/"
   xmlns:cc="http://creativecommons.org/ns#"
   xmlns:rdf="http://www.w3.org/1999/02/22-rdf-syntax-ns#"
   xmlns:svg="http://www.w3.org/2000/svg"
   xmlns="http://www.w3.org/2000/svg"
   xmlns:sodipodi="http://sodipodi.sourceforge.net/DTD/sodipodi-0.dtd"
   xmlns:inkscape="http://www.inkscape.org/namespaces/inkscape"
   viewBox="0 0 16 16"
   version="1.1"
   id="svg6"
   sodipodi:docname="sc_numberformatincdecimals.svg"
   inkscape:export-filename="/home/jupiter007/Libreoffice yaru theme fullcolor/build/cmd/sc_numberformatincdecimals.png"
   inkscape:export-xdpi="95"
   inkscape:export-ydpi="95"
   inkscape:version="0.92.5 (2060ec1f9f, 2020-04-08)">
  <metadata
     id="metadata12">
    <rdf:RDF>
      <cc:Work
         rdf:about="">
        <dc:format>image/svg+xml</dc:format>
        <dc:type
           rdf:resource="http://purl.org/dc/dcmitype/StillImage" />
      </cc:Work>
    </rdf:RDF>
  </metadata>
  <defs
     id="defs10" />
  <sodipodi:namedview
     pagecolor="#ffffff"
     bordercolor="#666666"
     borderopacity="1"
     objecttolerance="10"
     gridtolerance="10"
     guidetolerance="10"
     inkscape:pageopacity="0"
     inkscape:pageshadow="2"
     inkscape:window-width="1920"
     inkscape:window-height="1011"
     id="namedview8"
     showgrid="false"
     inkscape:zoom="14.75"
     inkscape:cx="0.44067797"
     inkscape:cy="8"
     inkscape:window-x="0"
     inkscape:window-y="32"
     inkscape:window-maximized="1"
     inkscape:current-layer="svg6" />
  <path
     inkscape:connector-curvature="0"
     id="path862"
     d="m 12,3.9999998 c -1.656852,0 -2.9999999,1.11929 -2.9999999,2.5 v 3 C 9.0000001,10.88071 10.343148,12 12,12 c 1.656852,0 3,-1.11929 3,-2.5000002 v -3 c 0,-1.38071 -1.343148,-2.5 -3,-2.5 z m 0,2 c 0.552287,0 1,0.4477133 1,1 v 1.6660156 0.3339844 c 0,0.5522867 -0.447713,1 -1,1 -0.552287,0 -1,-0.4477133 -1,-1 v -2 c 0,-0.5522867 0.447713,-1 1,-1 z"
     style="opacity:0.7;fill:#000000;stroke:#000000;stroke-width:2;stroke-miterlimit:4;stroke-dasharray:none;stroke-opacity:1" />
  <path
     inkscape:connector-curvature="0"
     style="opacity:0.7;fill:#000000;stroke:#000000;stroke-width:2;stroke-miterlimit:4;stroke-dasharray:none;stroke-opacity:1"
     d="m 6.0000001,3.9999998 c -1.656852,0 -3,1.11929 -3,2.5 v 3 c 0,1.3807102 1.343148,2.5000002 3,2.5000002 1.656852,0 3,-1.11929 3,-2.5000002 v -3 c 0,-1.38071 -1.343148,-2.5 -3,-2.5 z m 0,2 c 0.552287,0 1,0.4477133 1,1 v 1.6660156 0.3339844 c 0,0.5522867 -0.447713,1 -1,1 -0.552287,0 -1,-0.4477133 -1,-1 v -2 c 0,-0.5522867 0.447713,-1 1,-1 z"
     id="path864" />
  <rect
     y="10"
     x="1.0000001"
     height="2"
     width="2"
     id="rect866"
     style="opacity:0.7;fill:#000000;fill-opacity:1;fill-rule:evenodd;stroke:#000000;stroke-width:2;stroke-linecap:butt;stroke-linejoin:round;stroke-miterlimit:4;stroke-dasharray:none;stroke-opacity:1" />
  <path
     style="fill:#ffffff;stroke-width:1.09544516"
     d="m 12,3.9999998 c -1.656852,0 -2.9999999,1.11929 -2.9999999,2.5 v 3 C 9.0000001,10.88071 10.343148,12 12,12 c 1.656852,0 3,-1.11929 3,-2.5000002 v -3 c 0,-1.38071 -1.343148,-2.5 -3,-2.5 z m 0,2 c 0.552287,0 1,0.4477133 1,1 v 1.6660156 0.3339844 c 0,0.5522867 -0.447713,1 -1,1 -0.552287,0 -1,-0.4477133 -1,-1 v -2 c 0,-0.5522867 0.447713,-1 1,-1 z"
     id="path847"
     inkscape:connector-curvature="0" />
  <path
     id="path858"
     d="m 6.0000001,3.9999998 c -1.656852,0 -3,1.11929 -3,2.5 v 3 c 0,1.3807102 1.343148,2.5000002 3,2.5000002 1.656852,0 3,-1.11929 3,-2.5000002 v -3 c 0,-1.38071 -1.343148,-2.5 -3,-2.5 z m 0,2 c 0.552287,0 1,0.4477133 1,1 v 1.6660156 0.3339844 c 0,0.5522867 -0.447713,1 -1,1 -0.552287,0 -1,-0.4477133 -1,-1 v -2 c 0,-0.5522867 0.447713,-1 1,-1 z"
     style="fill:#ffffff;stroke-width:1.09544516"
     inkscape:connector-curvature="0" />
  <rect
     style="opacity:1;fill:#ffffff;fill-opacity:1;fill-rule:evenodd;stroke:none;stroke-width:2;stroke-linecap:butt;stroke-linejoin:round;stroke-miterlimit:4;stroke-dasharray:none;stroke-opacity:1"
     id="rect860"
     width="2"
     height="2"
     x="1.0000001"
     y="10" />
  <circle
     style="opacity:1;vector-effect:none;fill:#46a926;fill-opacity:1;stroke:none;stroke-width:3.49999976;stroke-linecap:butt;stroke-linejoin:round;stroke-miterlimit:4;stroke-dasharray:none;stroke-dashoffset:0;stroke-opacity:1"
     id="path2644"
     cy="12.5"
     cx="12.5"
     r="3.5" />
  <path
     inkscape:connector-curvature="0"
     id="path1063"
     overflow="visible"
     font-weight="400"
     style="color:#000000;font-weight:400;line-height:normal;font-family:sans-serif;text-indent:0;text-align:start;text-decoration:none;text-decoration-line:none;text-decoration-style:solid;text-decoration-color:#000000;text-transform:none;white-space:normal;overflow:visible;isolation:auto;mix-blend-mode:normal;fill:#ffffff;fill-opacity:1;marker:none"
     d="m 12.000002,10 v 2 h -2.000001 v 1 h 2.000001 v 2 h 1 v -2 h 2 v -1 h -2 v -2 z" />
</svg>

<?xml version="1.0" encoding="UTF-8" standalone="no"?>
<svg
   xmlns:dc="http://purl.org/dc/elements/1.1/"
   xmlns:cc="http://creativecommons.org/ns#"
   xmlns:rdf="http://www.w3.org/1999/02/22-rdf-syntax-ns#"
   xmlns:svg="http://www.w3.org/2000/svg"
   xmlns="http://www.w3.org/2000/svg"
   xmlns:xlink="http://www.w3.org/1999/xlink"
   xmlns:sodipodi="http://sodipodi.sourceforge.net/DTD/sodipodi-0.dtd"
   xmlns:inkscape="http://www.inkscape.org/namespaces/inkscape"
   viewBox="0 0 16 16"
   version="1.1"
   id="svg6"
   sodipodi:docname="sc_numberformatincdecimals.svg"
   inkscape:export-filename="/home/jupiter007/Libreoffice yaru theme fullcolor/build/cmd/sc_numberformatincdecimals.png"
   inkscape:export-xdpi="95"
   inkscape:export-ydpi="95"
   inkscape:version="1.0.1 (3bc2e813f5, 2020-09-07)">
  <metadata
     id="metadata12">
    <rdf:RDF>
      <cc:Work
         rdf:about="">
        <dc:format>image/svg+xml</dc:format>
        <dc:type
           rdf:resource="http://purl.org/dc/dcmitype/StillImage" />
        <dc:title></dc:title>
      </cc:Work>
    </rdf:RDF>
  </metadata>
  <defs
     id="defs10">
    <linearGradient
       inkscape:collect="always"
       xlink:href="#linearGradient846"
       id="linearGradient848"
       x1="6"
       y1="4"
       x2="6"
       y2="12"
       gradientUnits="userSpaceOnUse" />
    <linearGradient
       inkscape:collect="always"
       id="linearGradient846">
      <stop
         style="stop-color:#151515;stop-opacity:1"
         offset="0"
         id="stop842" />
      <stop
         style="stop-color:#4d4d4d;stop-opacity:1"
         offset="1"
         id="stop844" />
    </linearGradient>
  </defs>
  <sodipodi:namedview
     pagecolor="#808080"
     bordercolor="#666666"
     borderopacity="1"
     objecttolerance="10"
     gridtolerance="10"
     guidetolerance="10"
     inkscape:pageopacity="0"
     inkscape:pageshadow="2"
     inkscape:window-width="1920"
     inkscape:window-height="1016"
     id="namedview8"
     showgrid="true"
     inkscape:zoom="29.5"
     inkscape:cx="0.86623132"
     inkscape:cy="9.7989899"
     inkscape:window-x="0"
     inkscape:window-y="27"
     inkscape:window-maximized="1"
     inkscape:current-layer="svg6"
     inkscape:document-rotation="0">
    <inkscape:grid
       type="xygrid"
       id="grid837" />
  </sodipodi:namedview>
  <path
     id="path862"
     style="opacity:1;fill:#000000;stroke:#ffffff;stroke-width:2;stroke-linejoin:round;stroke-miterlimit:4;stroke-dasharray:none;stroke-opacity:1"
     d="M 6,4 C 4.343148,4 3,5.11929 3,6.5 v 3 c 0,1.38071 1.343148,2.5 3,2.5 1.656852,0 3,-1.11929 3,-2.5 0,1.38071 1.343148,2.5 3,2.5 1.656852,0 3,-1.11929 3,-2.5 v -3 C 15,5.11929 13.656852,4 12,4 10.343148,4 9,5.11929 9,6.5 9,5.11929 7.656852,4 6,4 Z M 6,6 C 6.552287,6 7,6.447713 7,7 V 8.666016 9 C 7,9.552287 6.552287,10 6,10 5.447713,10 5,9.552287 5,9 V 7 C 5,6.447713 5.447713,6 6,6 Z m 6,0 c 0.552287,0 1,0.447713 1,1 V 8.666016 9 c 0,0.552287 -0.447713,1 -1,1 -0.552287,0 -1,-0.447713 -1,-1 V 7 C 11,6.447713 11.447713,6 12,6 Z M 1,10 v 2 h 2 v -2 z" />
  <path
     id="path847"
     style="fill:url(#linearGradient848);fill-opacity:1;stroke-width:1.09545"
     d="M 6,4 C 4.343148,4 3,5.11929 3,6.5 v 3 c 0,1.38071 1.343148,2.5 3,2.5 1.656852,0 3,-1.11929 3,-2.5 0,1.38071 1.343148,2.5 3,2.5 1.656852,0 3,-1.11929 3,-2.5 v -3 C 15,5.11929 13.656852,4 12,4 10.343148,4 9,5.11929 9,6.5 9,5.11929 7.656852,4 6,4 Z M 6,6 C 6.552287,6 7,6.447713 7,7 V 8.666016 9 C 7,9.552287 6.552287,10 6,10 5.447713,10 5,9.552287 5,9 V 7 C 5,6.447713 5.447713,6 6,6 Z m 6,0 c 0.552287,0 1,0.447713 1,1 V 8.666016 9 c 0,0.552287 -0.447713,1 -1,1 -0.552287,0 -1,-0.447713 -1,-1 V 7 C 11,6.447713 11.447713,6 12,6 Z M 1,10 v 2 h 2 v -2 z" />
  <circle
     style="opacity:1;vector-effect:none;fill:#46a926;fill-opacity:1;stroke:none;stroke-width:3.49999976;stroke-linecap:butt;stroke-linejoin:round;stroke-miterlimit:4;stroke-dasharray:none;stroke-dashoffset:0;stroke-opacity:1"
     id="path2644"
     cy="12.5"
     cx="12.5"
     r="3.5" />
  <path
     inkscape:connector-curvature="0"
     id="path1063"
     overflow="visible"
     font-weight="400"
     style="color:#000000;font-weight:400;line-height:normal;font-family:sans-serif;text-indent:0;text-align:start;text-decoration:none;text-decoration-line:none;text-decoration-style:solid;text-decoration-color:#000000;text-transform:none;white-space:normal;overflow:visible;isolation:auto;mix-blend-mode:normal;fill:#ffffff;fill-opacity:1;marker:none"
     d="m 12.000002,10 v 2 h -2.000001 v 1 h 2.000001 v 2 h 1 v -2 h 2 v -1 h -2 v -2 z" />
</svg>
